svgs/solid/rectangle-history-circle-plus.svg

<svg xmlns="http://www.w3.org/2000/svg" viewBox="0 0 640 512"><!--! Font Awesome Pro 6.2.0 by @fontawesome - https://fontawesome.com License - https://fontawesome.com/license (Commercial License) Copyright 2022 Fonticons, Inc. --><path d="M320 368c0 59.5 29.5 112.1 74.8 144L64 512c-35.3 0-64-28.7-64-64V224c0-35.3 28.7-64 64-64l384 0c23.8 0 44.5 12.9 55.5 32.2c-2.5-.1-5-.2-7.5-.2c-97.2 0-176 78.8-176 176zM440 80c13.3 0 24 10.7 24 24s-10.7 24-24 24L72 128c-13.3 0-24-10.7-24-24s10.7-24 24-24l368 0zM392 0c13.3 0 24 10.7 24 24s-10.7 24-24 24L120 48c-13.3 0-24-10.7-24-24s10.7-24 24-24H392zM496 512c-79.5 0-144-64.5-144-144s64.5-144 144-144s144 64.5 144 144s-64.5 144-144 144zm16-208c0-8.8-7.2-16-16-16s-16 7.2-16 16v48H432c-8.8 0-16 7.2-16 16s7.2 16 16 16h48v48c0 8.8 7.2 16 16 16s16-7.2 16-16V384h48c8.8 0 16-7.2 16-16s-7.2-16-16-16H512V304z"/></svg>

<svg xmlns="http://www.w3.org/2000/svg" viewBox="0 0 640 512"><!--! Font Awesome Pro 6.1.2 by @fontawesome - https://fontawesome.com License - https://fontawesome.com/license (Commercial License) Copyright 2022 Fonticons, Inc. --><path d="M320 368C320 427.5 349.5 480.1 394.8 512H64C28.65 512 0 483.3 0 448V224C0 188.7 28.65 160 64 160H448C471.8 160 492.5 172.9 503.5 192.2C501 192.1 498.5 192 496 192C398.8 192 320 270.8 320 368zM440 80C453.3 80 464 90.75 464 104C464 117.3 453.3 128 440 128H72C58.75 128 48 117.3 48 104C48 90.75 58.75 80 72 80H440zM392 0C405.3 0 416 10.75 416 24C416 37.25 405.3 48 392 48H120C106.7 48 96 37.25 96 24C96 10.75 106.7 0 120 0H392zM352 368C352 288.5 416.5 224 496 224C575.5 224 640 288.5 640 368C640 447.5 575.5 512 496 512C416.5 512 352 447.5 352 368zM512 303.1C512 295.2 504.8 287.1 496 287.1C487.2 287.1 480 295.2 480 303.1V351.1H432C423.2 351.1 416 359.2 416 367.1C416 376.8 423.2 383.1 432 383.1H480V431.1C480 440.8 487.2 447.1 496 447.1C504.8 447.1 512 440.8 512 431.1V383.1H560C568.8 383.1 576 376.8 576 367.1C576 359.2 568.8 351.1 560 351.1H512V303.1z"/></svg>
